X: 10052
T: LASSIES THREE
C: Bob McQuillen 24 Oct 92
B: Bob's Note Book 10 #52
%R: jig
Z: 2020 John Chambers <jc:trillian.mit.edu>
M: 6/8
L: 1/8
K: G
g2e \
| dBG BdB | AGE G2E | DEG BdB | A3 g2e |\
| ded BGB | AGE GBd | gdB ABA | G3 :|
|: B2d \
| ega bgb | age dBd | ega bag | e3 g2e |\
| deg e2d | geg d2g | dBG ABA | G3 :|
%%begintext align
%% You've heard of three pretty maids all
%% in a a row - well, how about three pretty maids all in a house?
%% I've been going to write this tune for years to memorialize the fact that
%% quite a long time ago Nancy Pratt, Sarah Bauhan, and Julie Perron
%% all lived together in the same house over in Harrisville. I don't
%% know why I thought I had to write a tune about this important historical
%% fact - I guess I just liked the title. And I liked all three girls.
%% And I still do!
%%endtext

%%sep 1 1 500

%%sep 1 1 500

